X:1
T:Good Hearted Glasgow
C:David Ross
R:Jig
B:The Complete Andrew Rankine Collection
Z:Terry Traub 3-3-02
N:from Liz Donaldson
M:6/8
K:A
L: 1/8
   e \
| "A"edc "E7"e2f | "A"ecA A3  | "E7"BGE B2c | "E7"dcB GFE \
| "A"edc "E7"e2f | "A"ecA A2e | "E7"dBG EFG | "A"A3   A2 :|
|: e \
| "D"fdf a2f | "A"ecA A3  | "E7"BGE B2e | "A"fec "A7"e3 \
| "D"fdf a2f | "A"ecA e3  | "E7"dBG EFG | "A"A3   A2 :|
